public/img/next/draw.svg

<svg width="457" height="457" viewBox="0 0 457 457" fill="none" xmlns="http://www.w3.org/2000/svg">
<path fill-rule="evenodd" clip-rule="evenodd" d="M58.1389 452.944C58.1389 455.184 59.9549 457 62.1951 457C64.4352 457 66.2513 455.184 66.2513 452.944V398.859H141.066V452.944C141.066 455.184 142.882 457 145.122 457C147.363 457 149.179 455.184 149.179 452.944V398.859H223.993V452.944C223.993 455.184 225.809 457 228.049 457C230.29 457 232.106 455.184 232.106 452.944V398.859H232.119C232.265 398.86 232.41 398.86 232.556 398.86C232.702 398.86 232.848 398.86 232.994 398.859H306.92V452.944C306.92 455.184 308.736 457 310.976 457C313.217 457 315.033 455.184 315.033 452.944V398.859H390.748V452.944C390.748 455.184 392.564 457 394.805 457C397.045 457 398.861 455.184 398.861 452.944V405.236L440.644 447.02C442.228 448.604 444.797 448.604 446.381 447.02C447.965 445.436 447.965 442.867 446.381 441.283L403.957 398.859H452.944C455.184 398.859 457 397.043 457 394.803C457 392.563 455.184 390.747 452.944 390.747H398.861V315.032H452.944C455.184 315.032 457 313.216 457 310.975C457 308.735 455.184 306.919 452.944 306.919H398.861V265.622C401.266 254.802 402.641 243.593 402.88 232.106H452.944C455.184 232.106 457 230.29 457 228.049C457 225.809 455.184 223.993 452.944 223.993H402.859C402.569 212.82 401.203 201.914 398.861 191.376V149.179H452.944C455.184 149.179 457 147.363 457 145.122C457 142.882 455.184 141.066 452.944 141.066H398.861V66.2505H452.944C455.184 66.2505 457 64.4345 457 62.1943C457 59.9541 455.184 58.1381 452.944 58.1381H403.962L447.682 14.4183C449.266 12.8342 449.266 10.266 447.682 8.68192C446.097 7.09787 443.529 7.09788 441.945 8.68192L398.861 51.7664V4.05621C398.861 1.81604 397.045 0 394.804 0C392.564 0 390.748 1.81601 390.748 4.05621V58.1381H315.033V4.05621C315.033 1.81604 313.217 0 310.976 0C308.736 0 306.92 1.81601 306.92 4.05621V58.1381H232.556H232.106V4.05621C232.106 1.81604 230.29 0 228.049 0C225.809 0 223.993 1.81601 223.993 4.05621V58.1381H149.179V4.05621C149.179 1.81604 147.363 0 145.122 0C142.882 0 141.066 1.81601 141.066 4.05621V58.1381H66.2513V4.05621C66.2513 1.81604 64.4352 0 62.195 0C59.9549 0 58.1388 1.81601 58.1388 4.05621L58.1388 53.0417L15.718 10.6208C14.134 9.0368 11.5657 9.03679 9.98166 10.6208C8.39761 12.2049 8.39762 14.7732 9.98166 16.3572L51.7626 58.1381H4.05621C1.81603 58.1381 0 59.9541 0 62.1943C0 64.4345 1.81602 66.2505 4.05621 66.2505H58.1388L58.1388 141.066H4.05621C1.81603 141.066 0 142.882 0 145.122C0 147.363 1.81602 149.179 4.05621 149.179H58.1388V223.993H4.05621C1.81603 223.993 0 225.809 0 228.049C0 230.29 1.81602 232.106 4.05621 232.106H58.1388V306.919H4.05621C1.81603 306.919 0 308.735 0 310.975C0 313.216 1.81602 315.032 4.05621 315.032H58.1388L58.1388 390.747H4.05621C1.81603 390.747 0 392.563 0 394.803C0 397.043 1.81602 398.859 4.05621 398.859H51.7677L8.68091 441.946C7.09686 443.53 7.09686 446.098 8.68091 447.683C10.265 449.267 12.8332 449.267 14.4173 447.683L58.1388 403.961L58.1389 452.944ZM306.92 66.2505H284.651C292.326 68.7126 299.763 71.7042 306.92 75.1821V66.2505ZM306.92 81.8836C292.094 74.3488 275.972 68.9967 258.978 66.2505H232.106V141.066H306.92V81.8836ZM315.033 135.594V86.2983C325.254 92.2396 334.777 99.2516 343.447 107.181L315.033 135.594ZM306.92 155.18L294.263 167.836C299.105 172.76 303.361 178.261 306.92 184.226V155.18ZM315.033 202.241V149.179H376.545C382.524 160.01 387.317 171.588 390.748 183.737V223.993H318.974C318.586 216.446 317.232 209.155 315.033 202.241ZM306.92 232.106V259.466C302.936 269.023 297.163 277.648 290.02 284.923L237.203 232.106H306.92ZM306.92 197.534V223.993H238.107L290.021 172.079C297.164 179.353 302.936 187.978 306.92 197.534ZM306.92 272.775V301.823L294.263 289.165C299.104 284.241 303.361 278.74 306.92 272.775ZM315.033 306.919V254.76C317.32 247.571 318.693 239.974 319.015 232.106H390.748V273.261C387.412 285.074 382.789 296.347 377.038 306.919H315.033ZM306.92 315.032H233.049C232.954 315.032 232.858 315.033 232.763 315.033L232.556 315.033C232.406 315.033 232.256 315.033 232.106 315.032V390.747H258.981C275.974 388.001 292.095 382.649 306.92 375.114V315.032ZM315.033 370.7V321.408L343.444 349.82C334.775 357.748 325.253 364.759 315.033 370.7ZM306.92 381.816C299.764 385.294 292.327 388.285 284.653 390.747H306.92V381.816ZM315.033 390.747V377.6C326.851 371.049 337.808 363.134 347.691 354.066L384.372 390.747H315.033ZM315.033 79.3979V66.2505H384.377L347.693 102.934C337.809 93.8658 326.852 85.9496 315.033 79.3979ZM180.459 390.747H149.179V377.097C159.039 382.642 169.508 387.233 180.459 390.747ZM141.066 390.747V372.234C130.778 365.672 121.242 358.036 112.616 349.484L71.3528 390.747H141.066ZM206.132 390.747C185.629 387.434 166.397 380.328 149.179 370.172V315.032H223.993V390.747H206.132ZM141.066 365.063V321.034L116.859 345.241C124.268 352.585 132.373 359.228 141.066 365.063ZM166.375 284.252L149.179 301.449V251.735C152.548 263.852 158.488 274.9 166.375 284.252ZM141.066 306.919V232.106H68.2341C68.8165 259.158 75.9352 284.602 88.0741 306.919H141.066ZM166.374 172.75C158.488 182.102 152.548 193.149 149.179 205.266V155.554L166.374 172.75ZM141.066 223.993V149.179H88.5674C76.2643 171.465 68.9847 196.912 68.2559 223.993H141.066ZM223.993 141.066H149.179V86.826C166.398 76.6699 185.631 69.5637 206.135 66.2505H223.993V141.066ZM141.066 135.969V91.9352C132.372 97.771 124.267 104.415 116.857 111.759L141.066 135.969ZM180.461 66.2505C169.509 69.7642 159.04 74.356 149.179 79.9011V66.2505H180.461ZM141.066 84.7642V66.2505H71.3477L112.614 107.517C121.241 98.9636 130.778 91.3267 141.066 84.7642ZM390.748 71.3515L353.541 108.559C363.207 118.309 371.702 129.22 378.8 141.066H390.748V71.3515ZM390.748 149.179H383.364C386.089 154.35 388.556 159.678 390.748 165.146V149.179ZM390.748 291.852C388.683 297.003 386.374 302.031 383.835 306.919H390.748V291.852ZM390.748 315.032H379.335C372.131 327.226 363.45 338.445 353.539 348.441L390.748 385.651V315.032ZM372.32 315.032C365.754 325.615 358.019 335.397 349.296 344.199L320.129 315.032H372.32ZM300.544 306.919L288.307 294.683C282.532 299.553 276.11 303.681 269.189 306.919H300.544ZM284.048 290.423L232.106 238.481V306.919H250.966C263.333 304.027 274.604 298.285 284.048 290.423ZM223.993 149.179V218.896L176.134 171.037C187.51 159.867 202.187 152.048 218.568 149.179H223.993ZM217.618 223.993L170.633 177.009C159.911 189.89 153.131 206.169 152.148 223.993H217.618ZM197.92 149.179C188.176 153.439 179.369 159.442 171.891 166.794L154.276 149.179H197.92ZM134.691 141.066L111.236 117.611C104.604 124.863 98.6134 132.711 93.3546 141.066H134.691ZM106.989 113.364L66.2513 72.6268L66.2513 141.066H86.3127C92.2657 131.13 99.2026 121.851 106.989 113.364ZM135.595 315.032L111.238 339.389C104.367 331.877 98.1854 323.725 92.7919 315.032H135.595ZM155.181 306.919H195.924C186.972 302.73 178.855 297.054 171.892 290.207L155.181 306.919ZM176.135 285.965C186.477 296.12 199.548 303.505 214.147 306.919H223.993V238.107L176.135 285.965ZM218.521 232.106L170.634 279.993C159.73 266.895 152.904 250.283 152.103 232.106H218.521ZM284.049 166.578L232.106 218.521V149.179H246.545C260.649 151.649 273.491 157.789 284.049 166.578ZM301.449 149.179L288.308 162.319C281.981 156.984 274.878 152.539 267.193 149.179H301.449ZM321.034 141.066H371.758C365.314 130.829 357.773 121.352 349.298 112.802L321.034 141.066ZM106.991 343.636L66.2513 384.376L66.2513 315.032H85.777C91.8488 325.309 98.9692 334.893 106.991 343.636ZM66.2513 306.919H81.2779C74.5822 294.029 69.4858 280.175 66.2513 265.62V306.919ZM66.2513 191.378C69.5612 176.483 74.821 162.323 81.7489 149.179H66.2513V191.378Z" fill="#2C2939"/>
</svg>

<svg width="457" height="457" fill="none" xmlns="http://www.w3.org/2000/svg"><path fill-rule="evenodd" clip-rule="evenodd" d="M58.139 452.944a4.056 4.056 0 0 0 8.112 0v-54.085h74.815v54.085a4.056 4.056 0 0 0 8.113 0v-54.085h74.814v54.085a4.056 4.056 0 0 0 8.113 0v-54.085h.013l.437.001.438-.001h73.926v54.085a4.056 4.056 0 0 0 8.113 0v-54.085h75.715v54.085a4.056 4.056 0 0 0 8.113 0v-47.708l41.783 41.784a4.057 4.057 0 0 0 5.737-5.737l-42.424-42.424h48.987a4.056 4.056 0 0 0 0-8.112h-54.083v-75.715h54.083a4.056 4.056 0 0 0 0-8.113h-54.083v-41.297a170.729 170.729 0 0 0 4.019-33.516h50.064a4.056 4.056 0 0 0 0-8.113h-50.085a170.653 170.653 0 0 0-3.998-32.617v-42.197h54.083a4.056 4.056 0 0 0 0-8.113h-54.083V66.25h54.083a4.056 4.056 0 0 0 0-8.112h-48.982l43.72-43.72a4.056 4.056 0 1 0-5.737-5.736l-43.084 43.084V4.056a4.056 4.056 0 0 0-8.113 0v54.082h-75.715V4.056a4.056 4.056 0 0 0-8.113 0v54.082H232.106V4.056a4.056 4.056 0 0 0-8.113 0v54.082h-74.814V4.056a4.056 4.056 0 0 0-8.113 0v54.082H66.251V4.056a4.056 4.056 0 0 0-8.112 0v48.986L15.718 10.62a4.056 4.056 0 0 0-5.736 5.736l41.78 41.781H4.057a4.056 4.056 0 1 0 0 8.113H58.14v74.815H4.056a4.056 4.056 0 1 0 0 8.113H58.14v74.814H4.056a4.056 4.056 0 1 0 0 8.113H58.14v74.813H4.056a4.056 4.056 0 1 0 0 8.113H58.14v75.715H4.056a4.056 4.056 0 1 0 0 8.112h47.712L8.68 441.946a4.057 4.057 0 0 0 5.736 5.737l43.722-43.722v48.983zM306.92 66.25h-22.269a169.188 169.188 0 0 1 22.269 8.932v-8.931zm0 15.634a163.196 163.196 0 0 0-47.942-15.633h-26.872v74.815h74.814V81.884zm8.113 53.71V86.298a164.916 164.916 0 0 1 28.414 20.883l-28.414 28.413zm-8.113 19.586-12.657 12.656a86.852 86.852 0 0 1 12.657 16.39V155.18zm8.113 47.061v-53.062h61.512a163.362 163.362 0 0 1 14.203 34.558v40.256h-71.774a86.314 86.314 0 0 0-3.941-21.752zm-8.113 29.865v27.36a80.653 80.653 0 0 1-16.9 25.457l-52.817-52.817h69.717zm0-34.572v26.459h-68.813l51.914-51.914a80.641 80.641 0 0 1 16.899 25.455zm0 75.241v29.048l-12.657-12.658a86.893 86.893 0 0 0 12.657-16.39zm8.113 34.144V254.76a86.28 86.28 0 0 0 3.982-22.654h71.733v41.155a163.283 163.283 0 0 1-13.71 33.658h-62.005zm-8.113 8.113h-73.871l-.286.001h-.207l-.45-.001v75.715h26.875a163.166 163.166 0 0 0 47.939-15.633v-60.082zm8.113 55.668v-49.292l28.411 28.412a164.937 164.937 0 0 1-28.411 20.88zm-8.113 11.116a169.131 169.131 0 0 1-22.267 8.931h22.267v-8.931zm8.113 8.931V377.6a170.806 170.806 0 0 0 32.658-23.534l36.681 36.681h-69.339zm0-311.35V66.25h69.344l-36.684 36.684a170.851 170.851 0 0 0-32.66-23.536zm-134.574 311.35h-31.28v-13.65a169.393 169.393 0 0 0 31.28 13.65zm-39.393 0v-18.513a171.124 171.124 0 0 1-28.45-22.75l-41.263 41.263h69.713zm65.066 0a163.255 163.255 0 0 1-56.953-20.575v-55.14h74.814v75.715h-17.861zm-65.066-25.684v-44.029l-24.207 24.207a165.085 165.085 0 0 0 24.207 19.822zm25.309-80.811-17.196 17.197v-49.714a86.302 86.302 0 0 0 17.196 32.517zm-25.309 22.667v-74.813H68.234c.583 27.052 7.701 52.496 19.84 74.813h52.992zm25.308-134.169a86.31 86.31 0 0 0-17.195 32.516v-49.712l17.195 17.196zm-25.308 51.243v-74.814H88.567c-12.303 22.286-19.582 47.733-20.311 74.814h72.81zm82.927-82.927h-74.814v-54.24a163.273 163.273 0 0 1 56.956-20.575h17.858v74.815zm-82.927-5.097V91.935a165.165 165.165 0 0 0-24.209 19.824l24.209 24.21zm39.395-69.718a169.387 169.387 0 0 0-31.282 13.65v-13.65h31.282zm-39.395 18.513V66.251H71.348l41.266 41.266a171.15 171.15 0 0 1 28.452-22.753zm249.682-13.412-37.207 37.207a171.09 171.09 0 0 1 25.259 32.507h11.948V71.351zm0 77.827h-7.384a169.656 169.656 0 0 1 7.384 15.967v-15.967zm0 142.673a169.578 169.578 0 0 1-6.913 15.067h6.913v-15.067zm0 23.18h-11.413a171.013 171.013 0 0 1-25.796 33.409l37.209 37.21v-70.619zm-18.428 0a165.109 165.109 0 0 1-23.024 29.167l-29.167-29.167h52.191zm-71.776-8.113-12.237-12.236a86.572 86.572 0 0 1-19.118 12.236h31.355zm-16.496-16.496-51.942-51.942v68.438h18.86a80.264 80.264 0 0 0 33.082-16.496zm-60.055-141.244v69.717l-47.859-47.859c11.376-11.17 26.053-18.989 42.434-21.858h5.425zm-6.375 74.814-46.985-46.984c-10.722 12.881-17.502 29.16-18.485 46.984h65.47zm-19.698-74.814a86.67 86.67 0 0 0-26.029 17.615l-17.615-17.615h43.644zm-63.229-8.113-23.455-23.455a165.009 165.009 0 0 0-17.881 23.455h41.336zm-27.702-27.702L66.251 72.627v68.439h20.062a170.946 170.946 0 0 1 20.676-27.702zm28.606 201.668-24.357 24.357a164.922 164.922 0 0 1-18.446-24.357h42.803zm19.586-8.113h40.743a86.705 86.705 0 0 1-24.032-16.712l-16.711 16.712zm20.954-20.954c10.342 10.155 23.413 17.54 38.012 20.954h9.846v-68.812l-47.858 47.858zm42.386-53.859-47.887 47.887c-10.904-13.098-17.73-29.71-18.531-47.887h66.418zm65.528-65.528-51.943 51.943v-69.342h14.439c14.104 2.47 26.946 8.61 37.504 17.399zm17.4-17.399-13.141 13.14a86.555 86.555 0 0 0-21.115-13.14h34.256zm19.585-8.113h50.724a165.076 165.076 0 0 0-22.46-28.264l-28.264 28.264zm-214.043 202.57-40.74 40.74v-69.344h19.526a170.92 170.92 0 0 0 21.214 28.604zm-40.74-36.717h15.027A169.16 169.16 0 0 1 66.25 265.62v41.299zm0-115.541a169.16 169.16 0 0 1 15.498-42.199H66.25v42.199z" fill="#2C2939"/></svg>
